build/img/icons/inst.svg

<svg width="35" height="34" viewBox="0 0 35 34" fill="none" xmlns="http://www.w3.org/2000/svg">
<path d="M21.5616 8.43579H12.6273C10.3915 8.43579 8.57251 10.2567 8.57251 12.4948V21.5205C8.57251 23.7586 10.3915 25.5795 12.6273 25.5795H21.5616C23.7973 25.5795 25.6163 23.7586 25.6163 21.5205V12.4948C25.6163 10.2567 23.7973 8.43579 21.5616 8.43579ZM17.1115 22.412C14.0809 22.412 11.6155 19.9702 11.6155 16.9689C11.6155 13.9675 14.0812 11.5257 17.1115 11.5257C20.1417 11.5257 22.6075 13.9675 22.6075 16.9689C22.6075 19.9702 20.142 22.412 17.1115 22.412ZM22.7053 12.5975C21.991 12.5975 21.4121 12.018 21.4121 11.303C21.4121 10.588 21.991 10.0085 22.7053 10.0085C23.4195 10.0085 23.9984 10.588 23.9984 11.303C23.9984 12.018 23.4195 12.5975 22.7053 12.5975Z" fill="#6D6D6D"/>
<path d="M17.1365 0C7.7576 0 0.154297 7.61125 0.154297 17C0.154297 26.3887 7.7576 34 17.1365 34C26.5155 34 34.1188 26.3887 34.1188 17C34.1188 7.61125 26.5155 0 17.1365 0ZM27.622 21.5206C27.622 24.866 24.9031 27.5874 21.5615 27.5874H12.6272C9.28528 27.5874 6.56672 24.8657 6.56672 21.5206V12.4949C6.56672 9.1495 9.28562 6.42809 12.6272 6.42809H21.5615C24.9034 6.42809 27.622 9.14984 27.622 12.4949V21.5206Z" fill="#6D6D6D"/>
<path d="M17.1115 13.5298C15.1847 13.5298 13.6174 15.0725 13.6174 16.9689C13.6174 18.8654 15.1847 20.4081 17.1115 20.4081C19.0383 20.4081 20.6056 18.8654 20.6056 16.9689C20.6056 15.0725 19.0383 13.5298 17.1115 13.5298Z" fill="#6D6D6D"/>
</svg>

<svg viewBox="0 0 35 34" fill="none" xmlns="http://www.w3.org/2000/svg"><path d="M21.562 8.436h-8.935a4.062 4.062 0 00-4.054 4.059v9.025a4.062 4.062 0 004.054 4.06h8.935a4.062 4.062 0 004.054-4.06v-9.025a4.062 4.062 0 00-4.054-4.06zm-4.45 13.976c-3.031 0-5.496-2.442-5.496-5.443 0-3.002 2.465-5.443 5.495-5.443 3.03 0 5.497 2.441 5.497 5.443 0 3.001-2.466 5.443-5.497 5.443zm5.593-9.814a1.294 1.294 0 11.001-2.588 1.294 1.294 0 010 2.588z" fill="#6D6D6D"/><path d="M17.137 0C7.757 0 .154 7.611.154 17s7.604 17 16.983 17c9.378 0 16.982-7.611 16.982-17S26.515 0 17.137 0zm10.485 21.52c0 3.346-2.719 6.067-6.06 6.067h-8.935c-3.342 0-6.06-2.721-6.06-6.066v-9.026c0-3.345 2.719-6.067 6.06-6.067h8.934c3.342 0 6.061 2.722 6.061 6.067v9.026z" fill="#6D6D6D"/><path d="M17.111 13.53c-1.926 0-3.494 1.543-3.494 3.439 0 1.896 1.568 3.44 3.494 3.44 1.927 0 3.495-1.544 3.495-3.44 0-1.897-1.568-3.44-3.495-3.44z" fill="#6D6D6D"/></svg>
